X: 080770
T: Happy Mistake
S: Allan's Irish Fiddler
Z: B.Black
L: 1/8
M: 6/8
R: jig
K: A
E|ABA BAB|caf ecB|AGA BAB|cAF F2 E|
ABA BAB|caf ecA|d2 B cAF|ABA A2 :|
e|aga fga|gba gfe|aga fga|bge efg|
a2 z b2g|agf ecA|d2 B cAF|ABA A2 :|
